dist/assets/img/send.svg

<svg width="16" height="16" viewBox="0 0 16 16" fill="none" xmlns="http://www.w3.org/2000/svg">
<path d="M2.1825 4.8117L2.66661 4.93676L2.1825 4.8117ZM4.78833 2.35907L4.88251 2.85013L4.78833 2.35907ZM6.32559 8.85037L6.18453 8.37068L6.32559 8.85037ZM7.14962 9.6744L6.66994 9.53334L7.14962 9.6744ZM11.1883 13.8175L11.3134 14.3016L11.3134 14.3016L11.1883 13.8175ZM13.6409 11.2117L14.132 11.3058L14.132 11.3058L13.6409 11.2117ZM14.9474 4.39962L14.4563 4.30544L14.4563 4.30544L14.9474 4.39962ZM11.6004 1.05263L11.5062 0.561581L11.6004 1.05263ZM3.27887 12.014C3.08361 12.2093 3.08361 12.5259 3.27887 12.7211C3.47414 12.9164 3.79072 12.9164 3.98598 12.7211L3.27887 12.014ZM5.03895 11.6682C5.23421 11.4729 5.23421 11.1563 5.03895 10.9611C4.84369 10.7658 4.52711 10.7658 4.33184 10.9611L5.03895 11.6682ZM3.80536 14.6465C3.6101 14.8417 3.6101 15.1583 3.80536 15.3536C4.00062 15.5488 4.3172 15.5488 4.51247 15.3536L3.80536 14.6465ZM5.56544 14.3006C5.7607 14.1053 5.7607 13.7888 5.56544 13.5935C5.37017 13.3982 5.05359 13.3982 4.85833 13.5935L5.56544 14.3006ZM0.646447 11.4876C0.451184 11.6828 0.451184 11.9994 0.646447 12.1947C0.841709 12.3899 1.15829 12.3899 1.35355 12.1947L0.646447 11.4876ZM2.40652 11.1417C2.60179 10.9464 2.60179 10.6298 2.40652 10.4346C2.21126 10.2393 1.89468 10.2393 1.69942 10.4346L2.40652 11.1417ZM14.4563 4.30544L13.1499 11.1175L14.132 11.3058L15.4384 4.49379L14.4563 4.30544ZM4.88251 2.85013L11.6945 1.54368L11.5062 0.561581L4.69416 1.86802L4.88251 2.85013ZM2.66661 4.93676C2.94138 3.87311 3.80668 3.05645 4.88251 2.85013L4.69416 1.86802C3.23569 2.14773 2.06904 3.25184 1.69839 4.68665L2.66661 4.93676ZM6.18453 8.37068C4.09092 8.98637 2.11746 7.06256 2.66661 4.93676L1.69839 4.68665C0.958351 7.55143 3.61526 10.1686 6.46666 9.33006L6.18453 8.37068ZM7.62931 9.81546C7.88917 8.93181 7.06818 8.11082 6.18453 8.37068L6.46666 9.33006C6.59098 9.2935 6.7065 9.40901 6.66994 9.53334L7.62931 9.81546ZM11.0633 13.3334C8.93744 13.8826 7.01363 11.9091 7.62931 9.81546L6.66994 9.53334C5.83141 12.3847 8.44857 15.0417 11.3134 14.3016L11.0633 13.3334ZM13.1499 11.1175C12.9436 12.1933 12.1269 13.0586 11.0633 13.3334L11.3134 14.3016C12.7482 13.931 13.8523 12.7643 14.132 11.3058L13.1499 11.1175ZM15.4384 4.49379C15.8857 2.16173 13.8383 0.114327 11.5062 0.561581L11.6945 1.54368C13.3325 1.22956 14.7704 2.66753 14.4563 4.30544L15.4384 4.49379ZM3.98598 12.7211L5.03895 11.6682L4.33184 10.9611L3.27887 12.014L3.98598 12.7211ZM4.51247 15.3536L5.56544 14.3006L4.85833 13.5935L3.80536 14.6465L4.51247 15.3536ZM1.35355 12.1947L2.40652 11.1417L1.69942 10.4346L0.646447 11.4876L1.35355 12.1947Z" fill="white"/>
</svg>

<svg width="16" height="16" fill="none" xmlns="http://www.w3.org/2000/svg"><path d="m2.183 4.812.484.125-.484-.125Zm2.605-2.453.095.491-.095-.49ZM6.326 8.85l-.141-.48.14.48Zm.824.824-.48-.14.48.14Zm4.038 4.144.125.484-.125-.484Zm2.453-2.606.491.094-.491-.094ZM14.947 4.4l-.49-.095.49.095ZM11.6 1.053l-.094-.491.094.49ZM3.28 12.014a.5.5 0 1 0 .707.707l-.707-.707Zm1.76-.346a.5.5 0 1 0-.707-.707l.707.707Zm-1.234 2.979a.5.5 0 1 0 .707.707l-.707-.707Zm1.76-.346a.5.5 0 1 0-.707-.707l.707.707Zm-4.92-2.813a.5.5 0 1 0 .708.707l-.708-.707Zm1.76-.346a.5.5 0 1 0-.707-.707l.708.707Zm12.05-6.837-1.306 6.813.982.188 1.306-6.812-.982-.189ZM4.883 2.85l6.811-1.306-.188-.982-6.812 1.306.189.982ZM2.667 4.937A2.852 2.852 0 0 1 4.883 2.85l-.189-.982a3.852 3.852 0 0 0-2.996 2.819l.969.25ZM6.185 8.37c-2.094.615-4.068-1.308-3.518-3.434l-.969-.25C.958 7.55 3.615 10.169 6.467 9.33l-.282-.96Zm1.444 1.444A1.164 1.164 0 0 0 6.185 8.37l.282.96a.164.164 0 0 1 .203.202l.96.282Zm3.434 3.518c-2.126.55-4.05-1.424-3.434-3.518l-.96-.282c-.838 2.852 1.78 5.509 4.644 4.769l-.25-.969Zm2.087-2.216a2.852 2.852 0 0 1-2.087 2.216l.25.969a3.852 3.852 0 0 0 2.819-2.996l-.982-.188Zm2.288-6.623c.448-2.332-1.6-4.38-3.932-3.932l.188.982a2.36 2.36 0 0 1 2.762 2.761l.982.189ZM3.986 12.72l1.053-1.053-.707-.707-1.053 1.053.707.707Zm.526 2.633L5.565 14.3l-.707-.707-1.053 1.053.707.707Zm-3.158-3.16 1.053-1.052-.708-.707-1.053 1.053.708.707Z" fill="#fff"/></svg>
